src/dropbox/dropbox.svg

<svg xmlns="http://www.w3.org/2000/svg" width="128" height="128"><path fill="#fff" d="M47.533 26.795l16.467 13.744-23.728 14.652-16.272-13.031 23.533-15.365zm0 56.791l16.467-13.744-23.728-14.651-16.272 13.03 23.533 15.365zm56.467-15.365l-16.272-13.03-23.728 14.651 16.467 13.744 23.533-15.365zm-23.533-41.426l-16.467 13.744 23.728 14.651 16.272-13.03-23.533-15.365zm-16.418 74.41l23.581-14.143v-5.172l-7.067 4.614-16.514-13.704-16.516 13.704-7.067-4.614v5.172l23.583 14.143z"/></svg>

<?xml version="1.0" encoding="UTF-8" standalone="no"?>
<!-- Created with Inkscape (http://www.inkscape.org/) -->

<svg
   xmlns:dc="http://purl.org/dc/elements/1.1/"
   xmlns:cc="http://creativecommons.org/ns#"
   xmlns:rdf="http://www.w3.org/1999/02/22-rdf-syntax-ns#"
   xmlns:svg="http://www.w3.org/2000/svg"
   xmlns="http://www.w3.org/2000/svg"
   xmlns:inkscape="http://www.inkscape.org/namespaces/inkscape"
   version="1.1"
   width="128"
   height="128"
   id="svg2">
  <metadata
     id="metadata10">
    <rdf:RDF>
      <cc:Work
         rdf:about="">
        <dc:format>image/svg+xml</dc:format>
        <dc:type
           rdf:resource="http://purl.org/dc/dcmitype/StillImage" />
      </cc:Work>
    </rdf:RDF>
  </metadata>
  <defs
     id="defs8" />
  <path
     d="M 47.533,26.795 64,40.539 40.272,55.191 24,42.16 47.533,26.795 z m 0,56.791 L 64,69.842 40.272,55.191 24,68.221 47.533,83.586 z M 104,68.221 87.728,55.191 64,69.842 80.467,83.586 104,68.221 z M 80.467,26.795 64,40.539 87.728,55.19 104,42.16 80.467,26.795 z M 64.049,101.205 87.63,87.062 V 81.89 L 80.563,86.504 64.049,72.8 47.533,86.504 40.466,81.89 v 5.172 l 23.583,14.143 z"
     inkscape:connector-curvature="0"
     id="path4"
     style="fill:#ffffff" />
</svg>
